!!!COM: Palestrina, Giovanni Perluigi da
!!!OPR: Missa Lauda Sion
!!!OTL: Agnus I
**kern	**kern	**kern	**kern
*Ibass	*Itenor	*Icalto	*Icant
!Bassus	!Tenor	!Altus	!Cantus
*clefF4	*clefGv2	*clefG2	*clefG2
*k[]	*k[]	*k[]	*k[]
*G:mix	*G:mix	*G:mix	*G:mix
*M4/2	*M4/2	*M4/2	*M4/2
=1	=1	=1	=1
0r	1r	1d	0r
.	1G	2.g	.
.	.	4f	.
=2	=2	=2	=2
0r	2.c	4e	0r
.	.	4d	.
.	.	1e	.
.	4B	.	.
.	4A	.	.
.	4G	.	.
.	[2A	2c	.
=3	=3	=3	=3
0r	2A]	2.f	0r
.	2F	.	.
.	.	8e	.
.	.	8d	.
.	2.c	4e	.
.	.	4f	.
.	.	[2g	.
.	4B	.	.
=4	=4	=4	=4
1D	1A	2g]	1r
.	.	2f#	.
2.G	1B	2g	1d
.	.	[2G	.
4F	.	.	.
=5	=5	=5	=5
4E	2r	2G]	1g
4D	.	.	.
1E	1G	2c	.
.	.	2B	1g
2C	[2c	[2e	.
=6	=6	=6	=6
1F	2c]	4e]	1a
.	.	8d	.
.	.	8c	.
.	4B	2d	.
.	4A	.	.
2.E	2c	1e	[1g
.	[2B	.	.
8D	.	.	.
8C	.	.	.
=7	=7	=7	=7
2BB	4B]	2d	1g]
.	4A	.	.
2C	2.G	2e	.
1AA	.	2.c	[1cc
.	8F	.	.
.	8E	.	.
.	2F#	.	.
.	.	4d	.
=8	=8	=8	=8
1GG	1G	4e	2cc]
.	.	4f#	.
.	.	1g	2b
1r	1D	.	1a
.	.	2f	.
=9	=9	=9	=9
1GG	2r	2e	1g
.	1G	2d	.
1C	.	1e	2r
.	[2c	.	[2g
=10	=10	=10	=10
1C	4c]	1c	2g]
.	4B	.	.
.	1A	.	1cc
1D	.	[1f	.
.	4G	.	2b
.	4F	.	.
=11	=11	=11	=11
1C	2.c	2f]	4a
.	.	.	4g
.	.	2e	2.cc
.	4B	.	.
[1F	4A	[1c	.
.	4G	.	4b
.	2A	.	4a
.	.	.	4g
=12	=12	=12	=12
2F]	2F	1c]	2a
2E	2G	.	1g
1D	1A	1d	.
.	.	.	2f#
=13	=13	=13	=13
2C	1.c	1e	1g
2E	.	.	.
2F#	.	1d	1r
[2G	2B	.	.
=14	=14	=14	=14
2G]	1A	1r	1a
2F#	.	.	.
1G	1G	2r	1b
.	.	2d	.
=15	=15	=15	=15
0r	2r	2e	1g
.	2G	2B	.
.	2A	2c	1e
.	2E	2B	.
=16	=16	=16	=16
0r	4F	4A	1.a
.	4G	4G	.
.	4A	4F	.
.	4B	4G	.
.	4c	4A	.
.	4d	4B	.
.	[2e	2c	2g
=17	=17	=17	=17
1r	2e]	2d	2f
.	1d	2B-	4e
.	.	.	4d
2r	.	1A	1e
2A	2c#	.	.
=18	=18	=18	=18
1B	2d	2r	1d
.	2G	2d	.
1G	2r	2e	1r
.	2d	2B	.
=19	=19	=19	=19
1E	2e	2c	2r
.	2B	2.e	2g
[1A	1c	.	2a
.	.	4d	.
.	.	4c	2e
.	.	4B	.
=20	=20	=20	=20
2A]	2c	2A	2f
2G	2B	2B	2g
2F	2A	2c	1a
4E	4G	[2d	.
4D	4F	.	.
=21	=21	=21	=21
1E	1G	2d]	1g
.	.	2c#	.
[1D	2A	1d	[1f#
.	[2A	.	.
=22	=22	=22	=22
1D]	2A]	2r	1f#]
.	2B	2d	.
1r	2c	2e	1a
.	2d	2f#	.
=23	=23	=23	=23
0r	1G	4g	1b
.	.	4f	.
.	.	4e	.
.	.	4d	.
.	2.A	2c	1a
.	.	[2f	.
.	4B	.	.
=24	=24	=24	=24
2r	1c	4f]	2g
.	.	4e	.
2AA	.	2e	2.a
2BB	2d	2d	.
.	.	.	4g
2C	4c	2e	[2g
.	4B	.	.
=25	=25	=25	=25
1D	1A	2.d	2g]
.	.	.	2f#
.	.	4c	.
2.E	2r	1B	1g
.	2G	.	.
4F#	.	.	.
=26	=26	=26	=26
2G	2B	1e	1r
2A	2c	.	.
1D	1d	1f	2r
.	.	.	2a
=27	=27	=27	=27
1r	2G	1e	2b
.	2A	.	2cc#
2r	1B	2d	2dd
2E	.	[2e	2g
=28	=28	=28	=28
2F	1r	4e]	2a
.	.	4d	.
2G	.	1d	4g
.	.	.	4f
1A	2r	.	2e
.	2A	2c#	[2a
=29	=29	=29	=29
1r	1B-	2d	4a]
.	.	.	8g
.	.	.	8f
.	.	2d	2g
2r	1A	2e	1a
2D	.	2f#	.
=30	=30	=30	=30
2E	2G	2g	2r
2F	2.A	4f	2a
.	.	4e	.
2G	.	2d	2b
.	4G	.	.
2E	[2G	2G	2cc#
=31	=31	=31	=31
2.D	2G]	2A	0dd
.	2F#	2A	.
4C	.	.	.
4BB	1G	1B	.
4GG	.	.	.
[2G	.	.	.
=32	=32	=32	=32
2G]	1A	2c	2r
2F#	.	2.d	2a
1G	2r	.	1b-
.	.	4G	.
.	2G	[2g	.
=33	=33	=33	=33
2r	2d	2g]	1a
2D	2A	2f	.
2E	1c	2e	2g
2F#	.	2A	[2a
=34	=34	=34	=34
2G	2B	2B	4a]
.	.	.	4g
2E	4A	2c	1g
.	4G	.	.
1D	1A	1d	.
.	.	.	2f#
=35	=35	=35	=35
[0GG	[0G	[0d	[0g
=36	=36	=36	=36
0GG]	0G]	0d]	0g]
==	==	==	==
*-	*-	*-	*-
!!!CDT: 1525/^1526/-1594/2/2
!!!OCY: Italia
!!!AGN: Mass (Parody)
!!!AST: renaissance, vocal
!!!ASW: Motet 1563 (Palestrina)
!!!PWK: Masses, Book 4
!!!RNB: Cadence finals: D
!!!YOR: Le Opere Complete, v. 10, p. 1
!!!YOO: Rome, Italy: Fratelli Scalera
!!!END: 1992//
!!!EED: John Miller
!!!YEC: Copyright 2000, John Miller
!!!YEN: United States of America
!!!YEM: Rights to all derivative electronic formats reserved.
!!!YEM: Refer to licensing agreement for further details.
!!!YEM: This file must be accompanied by the licensing agreement.
!!!YEM: A copy of the licensing agreement may be found at http://www.music-cog.ohio-state.edu/HumdrumDatabases/Palestrina/license.txt
!!!EMD: converted to Humdrum by Bret Aarden
